X:57
T:Melchers Rant. Ru2.057
%%VWML:RutherfordVol2-2249-p29-0
F:http://www.vwml.org/record/RutherfordVol2/2249/p29
M:2/4
L:1/8
R:Rant
B:RUTHERFORD Complete Collection of 200 Country Dances Vol.2; 1759.
Z:vmp. Peter Dunk 2015
Q:1/4=120
K:G
BGGA|Bedg|fAAG|FDDG|E A2 G|F D2 g|e a2 g|
f d2 c|BA/G/ DF|"NB"G2 G,2::G B2 G|ECCE|AccA|FDDa|
be^de|c B2 A|GF/E/ GF| E3 F|GBd=F|ECCE|
AceG|F D2 f|gd2c|BGFD|EGFA|G2[G2G,2]:|
W:
W:Foot it & cast off 2.Cu: & turn .|cast up again & turn :|
W:cross over 2. Cu: lead to the top and cast off :| hands 4
W:at Bottom right & left at top :|
T:Prusian Rant. Ru2.058, The
M:C|
L:1/8
R:Rant
B:RUTHERFORD Complete Collection of 200 Country Dances Vol.2; 1759.
Z:vmp. Peter Dunk 2015
Q:1/2=80
K:A
e2 af e2 dc|dfdB cecA|egag aecA|dfec {c}B4:|
|:BGFE BcdB|cAGA eAcg|acdf eGAd|cBAG {G}A4:|
W:
W:First couple foot it & turn the 2d Wo .| the same to 2d man:|
W:Gallop down one Cu: up again & cast off.| lead through the
W:3d Cu: & cast up into the 2d Cu: places :|
